src/img/caret-grey.svg

<svg width="16" height="9" viewBox="0 0 16 9" fill="none" xmlns="http://www.w3.org/2000/svg">
<path d="M13.9458 0.347818C14.4171 -0.115939 15.1788 -0.115939 15.6465 0.347818C16.1161 0.811575 16.1196 1.56085 15.6465 2.02461L8.85058 8.65218C8.38106 9.11594 7.62112 9.11594 7.14811 8.65218L0.352145 2.02461C-0.117382 1.56258 -0.117382 0.811575 0.352145 0.347818C0.823411 -0.115939 1.58509 -0.115939 2.05288 0.347818L8.00196 5.78312L13.9458 0.347818Z" fill="#A7B9BE"/>
</svg>

<svg width="16" height="9" viewBox="0 0 16 9" xmlns="http://www.w3.org/2000/svg" fill="none"><path d="M13.946.348c.471-.464 1.233-.464 1.701 0 .47.464.473 1.213 0 1.677l-6.796 6.628c-.47.464-1.229.464-1.702 0l-6.796-6.628c-.47-.462-.47-1.213 0-1.677.471-.464 1.233-.464 1.701 0l5.949 5.435 5.944-5.435z" fill="#A7B9BE"/></svg>
